sun-thermometer-outline.svg

<svg fill="currentColor" viewBox="0 0 24 24"><path d="M10 2 7.6 5.4C8.4 5.2 9.2 5 10 5s1.6.2 2.4.4zm11 11.8V7c0-1.1-.9-2-2-2s-2 .9-2 2v6.8c-.6.6-1 1.4-1 2.2 0 1.7 1.3 3 3 3s3-1.3 3-3c0-.9-.4-1.7-1-2.2M20 8h-2V7c0-.6.4-1 1-1s1 .4 1 1zM5.5 6.7 1.3 7l1.8 3.8c.1-.8.4-1.6.8-2.3.5-.7 1-1.3 1.6-1.8M10 7c-2.8 0-5 2.2-5 5s2.2 5 5 5 5-2.2 5-5-2.2-5-5-5m0 8c-1.7 0-3-1.3-3-3s1.3-3 3-3 3 1.3 3 3-1.3 3-3 3m-6.8-1.8L1.4 17l4.1.4c-.5-.5-1.1-1.2-1.5-1.9-.5-.7-.7-1.5-.8-2.3m4.4 5.4L10 22l2.4-3.4c-.8.2-1.6.4-2.4.4-.9 0-1.7-.2-2.4-.4"/></svg>

<svg  viewBox="0 0 24 24" fill="currentColor"><path  d="M10 2L7.6 5.4C8.4 5.2 9.2 5 10 5S11.6 5.2 12.4 5.4L10 2M21 13.8V7C21 5.9 20.1 5 19 5S17 5.9 17 7V13.8C16.4 14.4 16 15.2 16 16C16 17.7 17.3 19 19 19S22 17.7 22 16C22 15.1 21.6 14.3 21 13.8M20 8H18V7C18 6.4 18.4 6 19 6S20 6.4 20 7V8M5.5 6.7L1.3 7L3.1 10.8C3.2 10 3.5 9.2 3.9 8.5C4.4 7.8 4.9 7.2 5.5 6.7M10 7C7.2 7 5 9.2 5 12S7.2 17 10 17 15 14.8 15 12 12.8 7 10 7M10 15C8.3 15 7 13.7 7 12S8.3 9 10 9 13 10.3 13 12 11.7 15 10 15M3.2 13.2L1.4 17L5.5 17.4C5 16.9 4.4 16.2 4 15.5C3.5 14.8 3.3 14 3.2 13.2M7.6 18.6L10 22L12.4 18.6C11.6 18.8 10.8 19 10 19C9.1 19 8.3 18.8 7.6 18.6Z"/></svg>
